Newaita-dark/actions/scalable/view-preview.svg

<?xml version="1.0" encoding="UTF-8"?>
<svg xmlns="http://www.w3.org/2000/svg" xmlns:xlink="http://www.w3.org/1999/xlink" width="512pt" height="512pt" viewBox="0 0 512 512" version="1.1">
<g id="surface1">
<path style=" stroke:none;fill-rule:nonzero;fill:rgb(74.117649%,74.117649%,74.117649%);fill-opacity:1;" d="M 63.507812 25.167969 C 40.050781 25.167969 21.167969 44.050781 21.167969 67.507812 L 21.167969 448.542969 C 21.167969 471.996094 40.050781 490.878906 63.507812 490.878906 L 444.542969 490.878906 C 467.996094 490.878906 486.878906 471.996094 486.878906 448.542969 L 486.878906 67.507812 C 486.878906 44.050781 467.996094 25.167969 444.542969 25.167969 Z M 74.089844 56.921875 L 433.957031 56.921875 C 445.683594 56.921875 455.125 66.363281 455.125 78.089844 L 455.125 437.957031 C 455.125 449.6875 445.683594 459.125 433.957031 459.125 L 74.089844 459.125 C 62.363281 459.125 52.921875 449.6875 52.921875 437.957031 L 52.921875 78.089844 C 52.921875 66.363281 62.363281 56.921875 74.089844 56.921875 Z M 74.089844 56.921875 "/>
<path style=" stroke:none;fill-rule:nonzero;fill:rgb(25.882354%,64.705884%,96.078432%);fill-opacity:1;" d="M 127.011719 109.84375 C 115.285156 109.84375 105.84375 119.285156 105.84375 131.011719 L 105.84375 385.035156 C 105.84375 396.765625 115.285156 406.207031 127.011719 406.207031 L 381.035156 406.207031 C 392.765625 406.207031 402.203125 396.765625 402.203125 385.035156 L 402.203125 131.011719 C 402.203125 119.285156 392.765625 109.84375 381.035156 109.84375 Z M 153.472656 141.597656 L 354.574219 141.597656 C 363.371094 141.597656 370.453125 148.675781 370.453125 157.472656 L 370.453125 358.574219 C 370.453125 367.371094 363.371094 374.453125 354.574219 374.453125 L 153.472656 374.453125 C 144.675781 374.453125 137.597656 367.371094 137.597656 358.574219 L 137.597656 157.472656 C 137.597656 148.675781 144.675781 141.597656 153.472656 141.597656 Z M 153.472656 141.597656 "/>
</g>
</svg>

<svg xmlns="http://www.w3.org/2000/svg" width="512pt" height="512pt" viewBox="0 0 512 512"><path d="M63.508 25.168c-23.457 0-42.34 18.883-42.34 42.34v381.035c0 23.453 18.883 42.336 42.34 42.336h381.035c23.453 0 42.336-18.883 42.336-42.336V67.508c0-23.457-18.883-42.34-42.336-42.34zM74.09 56.922h359.867a21.122 21.122 0 0 1 21.168 21.168v359.867a21.12 21.12 0 0 1-21.168 21.168H74.09a21.12 21.12 0 0 1-21.168-21.168V78.09A21.122 21.122 0 0 1 74.09 56.922zm0 0" fill="#bdbdbd"/><path d="M127.012 109.844a21.122 21.122 0 0 0-21.168 21.168v254.023a21.123 21.123 0 0 0 21.168 21.172h254.023a21.12 21.12 0 0 0 21.168-21.172V131.012a21.12 21.12 0 0 0-21.168-21.168zm26.46 31.754h201.102a15.84 15.84 0 0 1 15.88 15.875v201.101a15.844 15.844 0 0 1-15.88 15.88H153.473a15.84 15.84 0 0 1-15.875-15.88V157.473a15.838 15.838 0 0 1 15.875-15.875zm0 0" fill="#42a5f5"/></svg>
